Newaita-dark/actions/24/edit-image-face-add.svg

<svg height="24" viewBox="0 0 24 24" width="24" xmlns="http://www.w3.org/2000/svg"><g fill="#e0e0e0"><path d="m11.90625 2.171875c-2.746094 0-4.960938 2.214844-4.960938 4.960937 0 2.75 2.214844 4.960938 4.960938 4.960938 2.75 0 4.960938-2.210938 4.960938-4.960938 0-2.746093-2.210938-4.960937-4.960938-4.960937zm0 1.984375c1.648438 0 2.976562 1.328125 2.976562 2.976562 0 1.648438-1.328124 2.976563-2.976562 2.976563s-2.976562-1.328125-2.976562-2.976563c0-1.648437 1.328124-2.976562 2.976562-2.976562zm0 0"/><path d="m8.429688 12.597656c-.101563 0-.199219.015625-.292969.042969-.664063.210937-1.859375.464844-2.960938 1.054687-1.097656.589844-2.195312 1.726563-2.195312 3.359376v1.488281h-.003907v1.488281c0 1.101562.886719 1.988281 1.984376 1.988281h8.929687v-1.988281h-7.9375c-.550781 0-.992187-.441406-.992187-.992188v-.496093h-.003907v-1.488281c0-.84375.394531-1.210938 1.152344-1.617188.667969-.359375 1.535156-.585938 2.300781-.816406 2.398438.882812 4.597656.882812 6.996094 0 .042969.011718.082031.023437.125.035156l2.367188-1.3125c-.867188-.355469-1.707032-.542969-2.226563-.703125-.097656-.03125-.195313-.046875-.292969-.042969-.125 0-.25.023438-.367187.070313-2.308594.921875-3.898438.921875-6.210938 0-.117187-.050781-.246093-.074219-.371093-.070313zm0 0"/><path d="m15.378906 17.550781h5.957032c.273437 0 .496093.222657.496093.496094v.992187c0 .277344-.222656.496094-.496093.496094h-5.957032c-.273437 0-.496094-.21875-.496094-.496094v-.992187c0-.273437.222657-.496094.496094-.496094zm0 0"/><path d="m19.347656 15.566406v5.957032c0 .273437-.21875.496093-.496094.496093h-.992187c-.273437 0-.496094-.222656-.496094-.496093v-5.957032c0-.273437.222657-.496094.496094-.496094h.992187c.277344 0 .496094.222657.496094.496094zm0 0"/></g></svg>

<?xml version="1.0" encoding="UTF-8"?>
<svg xmlns="http://www.w3.org/2000/svg" xmlns:xlink="http://www.w3.org/1999/xlink" width="24px" height="24px" viewBox="0 0 24 24" version="1.1">
<g id="surface1">
<path style=" stroke:none;fill-rule:nonzero;fill:rgb(87.843138%,87.843138%,87.843138%);fill-opacity:1;" d="M 11.90625 2.171875 C 9.160156 2.171875 6.945312 4.386719 6.945312 7.132812 C 6.945312 9.882812 9.160156 12.09375 11.90625 12.09375 C 14.65625 12.09375 16.867188 9.882812 16.867188 7.132812 C 16.867188 4.386719 14.65625 2.171875 11.90625 2.171875 Z M 11.90625 4.15625 C 13.554688 4.15625 14.882812 5.484375 14.882812 7.132812 C 14.882812 8.78125 13.554688 10.109375 11.90625 10.109375 C 10.257812 10.109375 8.929688 8.78125 8.929688 7.132812 C 8.929688 5.484375 10.257812 4.15625 11.90625 4.15625 Z M 11.90625 4.15625 "/>
<path style=" stroke:none;fill-rule:nonzero;fill:rgb(87.843138%,87.843138%,87.843138%);fill-opacity:1;" d="M 8.429688 12.597656 C 8.328125 12.597656 8.230469 12.613281 8.136719 12.640625 C 7.472656 12.851562 6.277344 13.105469 5.175781 13.695312 C 4.078125 14.285156 2.980469 15.421875 2.980469 17.054688 L 2.980469 18.542969 L 2.976562 18.542969 L 2.976562 20.03125 C 2.976562 21.132812 3.863281 22.019531 4.960938 22.019531 L 13.890625 22.019531 L 13.890625 20.03125 L 5.953125 20.03125 C 5.402344 20.03125 4.960938 19.589844 4.960938 19.039062 L 4.960938 18.542969 L 4.957031 18.542969 L 4.957031 17.054688 C 4.957031 16.210938 5.351562 15.84375 6.109375 15.4375 C 6.777344 15.078125 7.644531 14.851562 8.410156 14.621094 C 10.808594 15.503906 13.007812 15.503906 15.40625 14.621094 C 15.449219 14.632812 15.488281 14.644531 15.53125 14.65625 L 17.898438 13.34375 C 17.03125 12.988281 16.191406 12.800781 15.671875 12.640625 C 15.574219 12.609375 15.476562 12.59375 15.378906 12.597656 C 15.253906 12.597656 15.128906 12.621094 15.011719 12.667969 C 12.703125 13.589844 11.113281 13.589844 8.800781 12.667969 C 8.683594 12.617188 8.554688 12.59375 8.429688 12.597656 Z M 8.429688 12.597656 "/>
<path style=" stroke:none;fill-rule:nonzero;fill:rgb(87.843138%,87.843138%,87.843138%);fill-opacity:1;" d="M 15.378906 17.550781 L 21.335938 17.550781 C 21.609375 17.550781 21.832031 17.773438 21.832031 18.046875 L 21.832031 19.039062 C 21.832031 19.316406 21.609375 19.535156 21.335938 19.535156 L 15.378906 19.535156 C 15.105469 19.535156 14.882812 19.316406 14.882812 19.039062 L 14.882812 18.046875 C 14.882812 17.773438 15.105469 17.550781 15.378906 17.550781 Z M 15.378906 17.550781 "/>
<path style=" stroke:none;fill-rule:nonzero;fill:rgb(87.843138%,87.843138%,87.843138%);fill-opacity:1;" d="M 19.347656 15.566406 L 19.347656 21.523438 C 19.347656 21.796875 19.128906 22.019531 18.851562 22.019531 L 17.859375 22.019531 C 17.585938 22.019531 17.363281 21.796875 17.363281 21.523438 L 17.363281 15.566406 C 17.363281 15.292969 17.585938 15.070312 17.859375 15.070312 L 18.851562 15.070312 C 19.128906 15.070312 19.347656 15.292969 19.347656 15.566406 Z M 19.347656 15.566406 "/>
</g>
</svg>
